X: 10142
T: the WHITE COCKADE
R: reel, march
B: "Edinburgh Repository of Music" v.1 p.14 #2
F: http://digital.nls.uk/special-collections-of-printed-music/pageturner.cfm?id=87776133
Z: 2015 John Chambers <jc:trillian.mit.edu>
M: 2/4
L: 1/16
K: G
g2 |\
d2B2 B2AG | B2B2B2g2 | d2B2B2AG | A2A2A2GA |\
B2B2 cBAG | A2B2 g3a | (ba).g.f (ag).f.e | d2B2 B2 :|
|: Bc |\
d2B2g2B2 | d2d2d2e2 | ({e}d2cB) ({a}g2fg) | a2A2A2GA |\
B2B2 cBAG | A2B2 g3a | (ba)(.g.f) (ag)(.f.e) | d2B2 B2 :|
